Catalina-light/actions/16/format-node-line.svg

<svg width="16" height="16" viewBox="0 0 16 16" xmlns="http://www.w3.org/2000/svg">
<defs>
<style id="current-color-scheme" type="text/css">.ColorScheme-Text { color:#5c616c; } .ColorScheme-Highlight { color:#5294e2; }</style>
</defs>
<path class="ColorScheme-Text" d="m12 1v1 1 0.3125l-3.6875 3.6875h-2.3125v2.3125l-2.6875 2.6875h-0.3125-1-1v3h3v-2.3125l2.6875-2.6875h2.3125v-2.3125l3.6875-3.6875h2.3125v-3h-3z" fill="#363636"/>
</svg>

<svg xmlns="http://www.w3.org/2000/svg" width="16" height="16" viewBox="0 0 16 16">
 <defs>
  <style id="current-color-scheme" type="text/css">
   .ColorScheme-Text { color:#5c616c; } .ColorScheme-Highlight { color:#5294e2; }
  </style>
 </defs>
 <path style="fill:currentColor" class="ColorScheme-Text" d="M 12 1 L 12 2 L 12 3 L 12 3.3125 L 8.3125 7 L 6 7 L 6 9.3125 L 3.3125 12 L 3 12 L 2 12 L 1 12 L 1 15 L 4 15 L 4 12.6875 L 6.6875 10 L 9 10 L 9 7.6875 L 12.6875 4 L 15 4 L 15 1 L 12 1 z"/>
</svg>
